X: 36194
T: Scottish Morvandelle
R: polka
M: 2/4
K: Gmajor
|:G F E>F|G A B2|A/B/c/A/ B G|F/A/G/F/ E2|
G F E>F|GA B2|A/B/c/A/ B G|F/A/G/F/ G2:|
|:d e d>B|G A B2|D/E/F/G/ A A|G/F/G/A/ B G|
d e d>B|G A B2|D/E/F/G/ A A|d/c/B/A/ G2:|

